X: 139
T: Ruffled Drawers
R: reel
Z: 2011 John Chambers <jc:trillian.mit.edu>
S: printed MS of unknown origin
M: C|
L: 1/8
K: D
dB | "D"A2f2 fgfe | "G"d2B2 BcdB | "D"A2f2 fgfe | "G"dB-B2 B2dB |
y4   "D"A2f2 fgfe | "G"d2B2 BcdB | "D"ABAG "A7"FDE2 | "D"D3E D2 :|
|: AB | "D"AF3 F2AB | AF-FE F2AB | A2F2 FED2 | "A7"E3D E2AB |
y3      "D"AF3 F2AB | AF-FE F2D2 | "A7"EDE2 FDE2 | "D"D3E D2 :|

%%newpage

